X: 305841
M: 6/8
L: 1/8
K: G
d |\
(d2B) (e2d) | (c2A) (d2c) | B2G c2B | (AB)G FED |\
(d2B) (e2d) | (c2A) (d2c) | (B2G) AcB | AGF "^D.C."G2 |]
M: 2/4
L: 1/16


